!!!!SEGMENT: pl-kk--kk-i-7--052-002_palestrina-giovanni-pierluigi-da--missa-de-sanctis-apostolis-et-in-terra.krn
!!!cenid: 16xx:872
!!!COM: Palestrina, Giovanni Pierluigi da
!!!COM-rismID: pe1904
!!!CDT: ~1525-1594/02/02
!!!CNT: Italian
!!!OPR: Missa de Sanctis Apostolis
!!!OTL: Et in terra
!!!OMV: 002
!!!PDT:
!!!AGN: Sacred; Mass
!!!SMS-siglum: PL-Kk
!!!SMS-shelfmark: Kk.I.7
!!!SMS-shelfwork: 052-002 M
!!!SMS-variant:
!!!SMS-altvar:
!!!NIFC-rismSourceID: 300258129
!!!NIFC-islandoraID: pl-kk:1956
!!!URL-pdf-islandora: https://repozytorium.nifc.pl/islandora/object/pl-kk%3A1956/datastream/PDF/view
!!!URL-scan: https://polish.musicsources.pl/pl/lokalizacje/galeria/rekopisy/6140 @EN{Scan on Polish Music Sources Website} @PL{Skany w portalu Dziedzictwo Muzyki Polskiej w otwartym dostępie}
!!!ONB-nifc: UWAGA: C (skan 0049-0050, s.90-92), A (0133-0134, s.86-88), T(0209-0210, s.80-82), B(0297-0298, s.80-82). Części Mszy: 1. Kyrie, 2. Et in terra, 3. Sanctus, 4. Agnus Dei. "Agnus II" rozpisane na 5 głosów. Głos dodatkowy zapisany w księdze T na stronie 82
!!!AIN: 2 alto 1 bass 1 vox
!!!key:
**kern	**text	**kern	**text	**kern	**text	**kern	**text
*part4	*part4	*part3	*part3	*part2	*part2	*part1	*part1
*staff4	*staff4	*staff3	*staff3	*staff2	*staff2	*staff1	*staff1
*Ibass	*	*Ialto	*	*Ialto	*	*Ivox	*
*I"[Bassus]	*	*I"[Altus II]	*	*I"[Altus I]	*	*I"[Cantus]	*
*I'[B]	*	*I'[A II]	*	*I'[A I]	*	*I'[C]	*
*clefF3	*	*clefC3	*	*clefC2	*	*clefC1	*
*k[b-]	*	*k[b-]	*	*k[b-]	*	*k[b-]	*
*F:	*	*F:	*	*F:	*	*F:	*
*M2/1	*	*M2/1	*	*M2/1	*	*M2/1	*
*met(C|)	*	*met(C|)	*	*met(C|)	*	*met(C|)	*
=1-	=1-	=1-	=1-	=1-	=1-	=1-	=1-
!	!	!	!	!LO:TX:t=P:problem=kreska pseudotaktowa	!	!	!
!LO:TX:t=P:problem=przy kluczu BB- B-	!	!LO:TX:b:t=Et in terra.	!	!LO:TX:t=P:problem=przy kluczu B- b-	!	!	!
!LO:TX:t=P:problem=oznaczenie menzuralne C|	!	!LO:TX:t=P:problem=oznaczenie menzuralne C|	!	!LO:TX:t=P:problem=oznaczenie menzuralne C|	!	!LO:TX:t=P:problem=oznaczenie menzuralne C|	!
1.F\	Et	00r	.	1r	.	1.f/	Et
.	.	.	.	1.c/	Et	.	.
2E/	in	.	.	.	.	2g/	in
=2-	=2-	=2-	=2-	=2-	=2-	=2-	=2-
*	*	*	*	*	*	*2\right	*
2F/	ter-	.	.	.	.	2a\	ter-
2D/	-ra	.	.	2d/	in	2f/	-ra
!LO:TX:t=P:problem=kreska pseudotaktowa	!	!	!	!	!	!	!
1C/	pax	.	.	2e/	ter-	2g\	pax
!	!	!	!	!LO:TX:t=P:problem=kreska pseudotaktowa	!	!	!
.	.	.	.	2c/	-ra	2a\	ho-
=3-	=3-	=3-	=3-	=3-	=3-	=3-	=3-
1G\	ho-	0r	.	2.d/	pax	1.b-\	-mi-
.	.	.	.	4e/	ho-	.	.
2D/	-mi-	.	.	1.f\	-mi-	.	.
!	!	!	!	!	!	!LO:TX:t=P:problem=kreska pseudotaktowa	!
2F/	-ni-	.	.	.	.	2a\	-ni-
=4-	=4-	=4-	=4-	=4-	=4-	=4-	=4-
!LO:TX:t=P:problem=kreska pseudotaktowa	!	!LO:TX:t=P:problem=kreska pseudotaktowa	!	!	!	!LO:TX:t=P:global:problem=rozdzielacz słów / znak oddechu zazwyczaj na wysokości poprzedzającego go dźwięku	!
1C/	-b(us)	1r	.	.	.	2g,\	-b(us)
.	.	.	.	2e/	-ni-	1cc\	bo-
!LO:TX:t=P:problem=kreska pseudotaktowa	!	!	!	!LO:TX:t=P:problem=kreska pseudotaktowa	!	!	!
1rA	.	1.f\	Bo-	1d/	-b(us)	.	.
.	.	.	.	.	.	2b-\	-nae
=5-	=5-	=5-	=5-	=5-	=5-	=5-	=5-
1c\	bo-	.	.	0re	.	2a\	Vo-
*2\right	*	*2\right	*	*	*	*	*
.	.	2e\	-nae	.	.	2.g/	.
2B-\	-nae	2d\	vo-	.	.	.	.
.	.	.	.	.	.	4f/	.
2A\	vo-	2c\	-lun-	.	.	2f/	-lun-
=6-	=6-	=6-	=6-	=6-	=6-	=6-	=6-
!	!	!	!	!LO:TX:t=P:problem=kreska pseudotaktowa	!	!LO:TX:t=P:problem=kreska pseudotaktowa	!
2B-\	-lun-	2d\	-ta-	1r	.	1g\	-ta-
2c\	-ta-	2e\	.	.	.	.	.
!LO:TX:t=P:global:problem=rozdzielacz słów / znak oddechu zazwyczaj na wysokości poprzedzającego go dźwięku	!	!LO:TX:t=P:problem=kreska pseudotaktowa	!	!LO:TX:t=P:problem=kreska pseudotaktowa	!	!	!
2F,/	-tis	1f\	-tis	2r	.	2a,\	-tis.
*	*	*	*	*2\right	*	*	*
2F/	Lau-	.	.	2f\	Lau-	2a\	Lau-
=7-	=7-	=7-	=7-	=7-	=7-	=7-	=7-
2A\	-da-	1r	.	2e/	-da-	2cc\	-da-
!LO:TX:t=P:problem=kreska pseudotaktowa	!	!	!	!	!	!	!
2B-\	.	.	.	2d/	-m(us)	2dd\	-m(us)
2F,/	-m(us)	2r	.	0f\	Te.	0cc\	Te
2.F/	be-	2.A/	be-	.	.	.	.
=8-	=8-	=8-	=8-	=8-	=8-	=8-	=8-
!	!	!	!	!LO:TX:t=P:problem=kreska pseudotaktowa	!	!LO:TX:t=P:problem=kreska pseudotaktowa	!
4F/	-ne-	4A/	-ne-	.	.	.	.
2F/	-di-	2A/	-di-	.	.	.	.
2E/	-ci-	2c\	-ci-	2r	.	2r	.
2D/	-m(us)	2d\	-m(us)	1f\	a-	1a\	a-
=9-	=9-	=9-	=9-	=9-	=9-	=9-	=9-
!LO:TX:t=P:problem=kreska pseudotaktowa	!	!LO:TX:t=P:problem=kreska pseudotaktowa	!	!	!	!	!
1F\	Te	1c\	Te	.	.	.	.
.	.	.	.	2f\	-do-	2a\	-do-
1rA	.	1re	.	2e/	-ra-	2cc\	-ra-
.	.	.	.	2d/	-m(us)	2dd\	-m(us)
=10-	=10-	=10-	=10-	=10-	=10-	=10-	=10-
!	!	!	!	!LO:TX:t=P:problem=kreska pseudotaktowa	!	!LO:TX:t=P:problem=kreska pseudotaktowa	!
2r	.	2rA	.	0f\	Te.	0cc\	Te
2F/	glo-	2A/	glo-	.	.	.	.
2F/	-ri-	2A/	-ri-	.	.	.	.
2F/	-fi-	2A/	-fi-	.	.	.	.
=11-	=11-	=11-	=11-	=11-	=11-	=11-	=11-
2E/	-ca-	2c\	-ca-	2r	.	2r	.
!LO:TX:t=P:problem=kreska pseudotaktowa	!	!	!	!	!	!	!
2D/	-m(us)	2d\	-m(us)	2.f\	Gra-	2.a\	Gra-
!	!	!LO:TX:t=P:problem=kreska pseudotaktowa	!	!	!	!	!
2.F\	Te	1c\	Te.	.	.	.	.
.	.	.	.	4f\	-ti-	4a\	-ti-
!	!	!	!	!	!	!LO:TX:t=P:problem=kreska pseudotaktowa	!
.	.	.	.	2f\	-as	2a\	-as
4G\	.	.	.	.	.	.	.
=12-	=12-	=12-	=12-	=12-	=12-	=12-	=12-
2A\	.	2r	.	2e/	a-	2cc\	a-
!	!	!	!	!LO:TX:t=P:problem=kreska pseudotaktowa	!	!	!
2B-\	.	2.f\	Gra-	2d/	-gi-	2dd\	-gi-
!LO:TX:t=P:problem=kreska pseudotaktowa	!	!	!	!	!	!	!
1F\	.	.	.	1a\	-m(us)	2.cc\	-mus
.	.	4f\	-ti-	.	.	.	.
!	!	!LO:TX:t=P:problem=kreska pseudotaktowa	!	!	!	!	!
.	.	2f\	-as	.	.	.	.
!	!	!	!	!	!	!LO:TX:t=P:problem=kreska pseudotaktowa	!
.	.	.	.	.	.	4b-\	.
=13-	=13-	=13-	=13-	=13-	=13-	=13-	=13-
*custos:G	*	*	*	*	*	*	*
!LO:TX:t=P:problem=kreska pseudotaktowa	!	!	!	!	!	!	!
0r	.	2e\	a-	2g\	Ti-	2cc\	Ti-
.	.	2d\	-gi-	2f\	.	2.dd\	.
.	.	2e\	-m(us)	2g\	.	.	.
.	.	.	.	.	.	4cc\	.
.	.	2f\	Ti-	1a\	.	1cc\	.
!LO:LB:g=original	!	!	!	!	!	!	!
=14-	=14-	=14-	=14-	=14-	=14-	=14-	=14-
!	!	!LO:TX:t=P:problem=kreska pseudotaktowa	!	!	!	!	!
2r	.	1d\	-bi	.	.	.	.
!	!	!	!	!	!	!LO:TX:t=P:problem=♮ above	!
2G\	pro-	.	.	4g\	.	2bn\	.
.	.	.	.	4f\	.	.	.
*	*	*	*	*	*	*custos:B-	*
!	!	!	!	!	!	!LO:TX:t=P:problem=kreska pseudotaktowa	!
!	!	!	!	!LO:TX:t=P:problem=kreska pseudotaktowa	!	!	!
2A\	.	1c\	pro-	1e\	-bi.	1cc\	-bi.
2c\	-pter	.	.	.	.	.	.
!	!	!	!	!	!	!LO:LB:g=original	!
=15-	=15-	=15-	=15-	=15-	=15-	=15-	=15-
2B-\	ma-	2d\	-pter	00r	.	00r	.
2A\	.	2f\	ma-	.	.	.	.
2G\	-gnam	2e\	-gna(m)	.	.	.	.
2.B-\	glo-	2.d\	glo-	.	.	.	.
=16-	=16-	=16-	=16-	=16-	=16-	=16-	=16-
!	!	!	!	!	!	!LO:TX:t=P:problem=kreska pseudotaktowa	!
4A\	-ri-	4c/	-ri-	.	.	.	.
!	!	!LO:TX:t=P:problem=kreska pseudotaktowa	!	!	!	!	!
1G\	-am	2B-/	-am	.	.	.	.
!	!	!LO:LB:g=original	!	!	!	!	!
.	.	1A/	Tu-	.	.	.	.
!LO:TX:t=P:problem=kreska pseudotaktowa	!	!	!	!	!	!	!
2F#X/	tu-	.	.	.	.	.	.
=17-	=17-	=17-	=17-	=17-	=17-	=17-	=17-
!	!	!	!	!LO:TX:t=P:problem=kreska pseudotaktowa	!	!	!
2G,\	-am.	4G/	.	2r	.	2r	.
.	.	4A/	.	.	.	.	.
2.G\	Do-	4B-/	.	2.g\	Do-	2.b-\	Do-
.	.	4c/	.	.	.	.	.
!	!	!LO:TX:t=P:problem=kreska pseudotaktowa	!	!	!	!	!
.	.	1d\	-am.	.	.	.	.
4G\	-mi-	.	.	4g\	-mi-	4b-\	-mi-
!	!	!	!	!LO:TX:t=P:problem=kreska pseudotaktowa	!	!	!
2G,\	-ne	.	.	2g\	-ne	2b-\	-ne
!	!	!	!	!LO:LB:g=original	!	!	!
=18-	=18-	=18-	=18-	=18-	=18-	=18-	=18-
2d\	DE-	0r	.	2f\	DE-	2a\	DE-
2d\	-(us)	.	.	2d/	-us	2f/	-(us)
2c,\	Rex	.	.	2e/	Rex	2g\	Rex
!LO:TX:t=P:problem=kreska pseudotaktowa	!	!	!	!	!	!	!
2A\	coe-	.	.	2c/	.	2a\	coe-
=19-	=19-	=19-	=19-	=19-	=19-	=19-	=19-
!	!	!LO:TX:t=P:problem=kreska pseudotaktowa	!	!	!	!	!
1G\	-le-	1r	.	2d/	coe-	1b-\	-le-
.	.	.	.	2e\	-le-	.	.
!	!	!	!	!LO:TX:t=P:global:problem=rozdzielacz słów / znak oddechu zazwyczaj na wysokości poprzedzającego go dźwięku	!	!LO:TX:t=P:problem=kreska pseudotaktowa	!
2F,/	-stis	2r	.	2f,\	-stis	1a\	-stis
1F\	DE-	1f\	DE-	1a\	DE-	.	.
=20-	=20-	=20-	=20-	=20-	=20-	=20-	=20-
.	.	.	.	.	.	2r	.
!LO:TX:t=P:problem=kreska pseudotaktowa	!	!	!	!LO:TX:t=P:problem=kreska pseudotaktowa	!	!	!
2F/	-(us)	2f\	-US	2a\	-(us)	1cc\	DE-
1F\	Pa-	1f\	Pa-	1a\	Pa-	.	.
.	.	.	.	.	.	2cc\	-us
=21-	=21-	=21-	=21-	=21-	=21-	=21-	=21-
2c\	-ter	2e\	-ter	2g,\	-ter	1cc\	Pa-
2A\	o-	2c\	o-	2f\	o-	.	.
2G\	-mni-	2d\	-mni-	2g\	-mni-	2b-\	-ter
2G\	-po-	2e\	-po-	2g\	-po-	2g\	om-
=22-	=22-	=22-	=22-	=22-	=22-	=22-	=22-
!LO:TX:t=P:problem=kreska pseudotaktowa	!	!	!	!	!	!	!
*	*	*lig	*	*	*	*	*
1F\	-tens	1f\	-tens	2c/	-tens	2a\	-ni-
!	!	!	!	!	!	!LO:TX:t=P:problem=kreska pseudotaktowa	!
.	.	.	.	2.f\	Do-	2a\	-po-
!	!	!LO:TX:t=P:problem=kreska pseudotaktowa	!	!	!	!	!
00r	.	1c\	.	.	.	2g,\	-tens
.	.	.	.	4f\	-mi-	.	.
.	.	.	.	2e\	-ne	2.cc\	Do-
*	*	*Xlig	*	*	*	*	*
=23-	=23-	=23-	=23-	=23-	=23-	=23-	=23-
.	.	0r	.	2f\	Fi-	.	.
.	.	.	.	.	.	4cc\	-mi-
!	!	!	!	!LO:TX:t=P:problem=kreska pseudotaktowa	!	!LO:TX:t=P:problem=kreska pseudotaktowa	!
.	.	.	.	2d/	-li	2bn\	-ne
.	.	.	.	2e\	U-	2cc\	Fi-
.	.	.	.	2f\	-ni-	2a\	-li
=24-	=24-	=24-	=24-	=24-	=24-	=24-	=24-
!LO:TX:t=P:problem=kreska pseudotaktowa	!	!	!	!	!	!	!
.	.	2rA	.	2g\	-ge-	2b-\	U-
.	.	2A/	JE-	2e/	-ni-	2cc\	-ni-
1r	.	2.B-/	.	2d,/	-te	2dd\	-ge-
.	.	.	.	2.g\	Je-	2b-\	-ni-
.	.	4c/	.	.	.	.	.
=25-	=25-	=25-	=25-	=25-	=25-	=25-	=25-
!	!	!LO:TX:t=P:global:problem=rozdzielacz słów / znak oddechu zazwyczaj na wysokości poprzedzającego go dźwięku	!	!	!	!LO:TX:t=P:problem=kreska pseudotaktowa	!
1D/	JE-	2d,\	-SU	.	.	1a\	-te
.	.	.	.	4f\	.	.	.
.	.	2.d\	Chri-	2f\	-su	.	.
!	!	!	!	!LO:TX:t=P:problem=kreska pseudotaktowa	!	!	!
2.E/	.	.	.	1e\	X-	1g\	Je-
.	.	4c/	.	.	.	.	.
.	.	1c\	.	.	.	.	.
4F/	.	.	.	.	.	.	.
=26-	=26-	=26-	=26-	=26-	=26-	=26-	=26-
!LO:TX:t=P:problem=kreska pseudotaktowa	!	!	!	!	!	!LO:TX:t=P:problem=kreska pseudotaktowa	!
1G\	-su	.	.	0d/	.	1g\	-su
!	!	!LO:N:acc=#	!	!	!	!	!
.	.	4Bn/	.	.	.	.	.
.	.	4A/	.	.	.	.	.
!	!	!LO:N:acc=#	!	!	!	!	!
1G\	X-	1Bn/	.	.	.	1g\	X-
=27-	=27-	=27-	=27-	=27-	=27-	=27-	=27-
!	!	!LO:TX:t=P:problem=kreska pseudotaktowa	!	!	!	!LO:TX:t=P:problem=kreska pseudotaktowa	!
2C,/	-te	1c\	-ste	2e,/	-te	0g\	-te.
2.c\	Do-	.	.	2.e/	Do-	.	.
.	.	0r	.	.	.	.	.
4c\	-mi-	.	.	4e/	-mi-	.	.
!	!	!	!	!LO:TX:t=P:problem=kreska pseudotaktowa	!	!	!
2B-\	-ne	.	.	2d/	-ne	.	.
=28-	=28-	=28-	=28-	=28-	=28-	=28-	=28-
!	!	!LO:TX:t=P:problem=kreska pseudotaktowa	!	!	!	!	!
2A\	De-	.	.	2e\	DE-	0r	.
*custos:A	*	*	*	*	*	*	*
!LO:TX:t=P:problem=kreska pseudotaktowa	!	!	!	!	!	!	!
2G\	-us	.	.	2g\	-(us)	.	.
!LO:LB:g=original	!	!	!	!	!	!	!
2A\	A-	1r	.	2f\	A-	.	.
!LO:TX:t=P:problem=kreska pseudotaktowa	!	!	!	!	!	!	!
2c\	-gn(us)	.	.	2e\	-gn(us)	.	.
=29-	=29-	=29-	=29-	=29-	=29-	=29-	=29-
!LO:TX:t=P:problem=kreska pseudotaktowa	!	!	!	!	!	!	!
1Bn\	De-	2r	.	1d/	De-	1r	.
.	.	2d\	Fi-	.	.	.	.
!	!	!	!	!LO:TX:t=P:problem=kreska pseudotaktowa	!	!	!
2c,\	-i	2e\	-li-	1c/	-i	2r	.
2c\	Fi-	2g\	-us	.	.	2g/	Fi-
=30-	=30-	=30-	=30-	=30-	=30-	=30-	=30-
2A\	-li-	4f\	Pa-	0r	.	2a\	-li-
.	.	4e\	.	.	.	.	.
!	!	!	!	!	!	!LO:TX:t=P:problem=kreska pseudotaktowa	!
2A\	-us	4e\	.	.	.	2cc\	-us
.	.	8d\L	.	.	.	.	.
.	.	8c\J	.	.	.	.	.
!	!	!LO:TX:t=P:problem=kreska pseudotaktowa	!	!	!	!	!
1G\	Pa-	1d\	.	.	.	1bn\	Pa-
=31-	=31-	=31-	=31-	=31-	=31-	=31-	=31-
2A,\	-tris	2c,\	-tris	2r	.	2cc,\	-tris
*	*	*	*	*custos:f	*	*	*
!	!	!	!	!LO:TX:t=P:problem=kreska pseudotaktowa	!	!	!
!LO:TX:t=P:problem=kreska pseudotaktowa	!	!	!	!	!	!	!
2F/	Qui	2c\	Qui	2f\	Qui	2a\	Qui
*	*	*	*	*	*	*custos:g	*
!	!	!	!	!LO:LB:g=original	!	!	!
!	!	!	!	!	!	!LO:TX:t=P:problem=kreska pseudotaktowa	!
1F\	tol-	1c\	tol-	1f\	tol-	1a\	tol-
!	!	!	!	!	!	!LO:LB:g=original	!
=32-	=32-	=32-	=32-	=32-	=32-	=32-	=32-
1C/	-lis	2c/	-lis	2e\	-lis	2g\	-lis
.	.	2c/	pec-	2e\	pec-	2g\	pec-
1r	.	2A/	-ca-	2f\	-ca-	2a\	-ca-
*	*	*custos:F	*	*	*	*	*
!	!	!LO:TX:t=P:problem=kreska pseudotaktowa	!	!	!	!	!
.	.	2G/	-ta	2g\	-ta	2b-\	-ta
!	!	!LO:LB:g=original	!	!	!	!	!
=33-	=33-	=33-	=33-	=33-	=33-	=33-	=33-
!LO:TX:t=P:problem=kreska pseudotaktowa	!	!	!	!	!	!	!
1r	.	4F/	mun-	1a\	mun-	1cc\	mun-
.	.	4F/	-di	.	.	.	.
.	.	1f\	mi-	.	.	.	.
!	!	!	!	!	!	!LO:TX:t=P:problem=kreska pseudotaktowa	!
0c\	mi-	.	.	2g\	-di	1cc\	-di
.	.	4e\	.	1g\	mi-	.	.
.	.	4d\	.	.	.	.	.
=34-	=34-	=34-	=34-	=34-	=34-	=34-	=34-
.	.	2.e\	.	.	.	2g\	mi-
.	.	.	.	2c/	-ſe-	2a\	-ſe-
.	.	4f\	.	.	.	.	.
1G\	-ſe-	1g\	.	2d/	-re-	1b-\	-re-
!	!	!	!	!LO:TX:t=P:problem=kreska pseudotaktowa	!	!	!
.	.	.	.	2e/	-re	.	.
=35-	=35-	=35-	=35-	=35-	=35-	=35-	=35-
1A\	-re-	1c\	-se-	2f\	no-	2a\	-re
.	.	.	.	2.e/	.	2.a\	no-
!LO:TX:t=P:problem=kreska pseudotaktowa	!	!	!	!	!	!	!
1B-\	-re	2d\	-re-	.	.	.	.
.	.	.	.	4d/	.	8g/L	.
.	.	.	.	.	.	8f/J	.
.	.	2d\	-re	1d/	.	2g\	.
=36-	=36-	=36-	=36-	=36-	=36-	=36-	=36-
!	!	!LO:TX:t=P:problem=kreska pseudotaktowa	!	!	!	!LO:TX:t=P:problem=kreska pseudotaktowa	!
1A\	no-	1e\	no-	.	.	1a\	-bis.
.	.	.	.	2c/	.	.	.
2D,/	-bis	2f,\	-bis	2d,/	-bis.	2r	.
2D/	Qui	2d\	Qui	2f\	Qui	2a\	Qui
=37-	=37-	=37-	=37-	=37-	=37-	=37-	=37-
!	!	!	!	!	!	!LO:TX:t=P:problem=kreska pseudotaktowa	!
1F\	tol-	1c\	tol-	1f\	tol-	1a\	tol-
!	!	!LO:TX:t=P:problem=kreska pseudotaktowa	!	!	!	!	!
2C,/	-lis	1c\	-lis	2e,\	-lis	2g\	-lis
2c\	pec-	.	.	2e\	pec-	2g\	pec-
=38-	=38-	=38-	=38-	=38-	=38-	=38-	=38-
2A\	-ca-	1r	.	2f\	-ca-	2a\	-ca-
!	!	!	!	!	!	!LO:TX:t=P:problem=kreska pseudotaktowa	!
2G\	-ta	.	.	2g\	-ta	2b-\	-ta
!LO:TX:t=P:problem=kreska pseudotaktowa	!	!	!	!	!	!	!
1F\	mun-	2r	.	1a\	mun-	1cc\	mun-
.	.	1f\	Su-	.	.	.	.
=39-	=39-	=39-	=39-	=39-	=39-	=39-	=39-
2C,/	-di	.	.	2g,\	-di	2cc,\	-di
1c\	Su-	4e\	.	1g\	Su-	1cc\	Su-
.	.	4d\	.	.	.	.	.
.	.	2e\	.	.	.	.	.
2F\	-ſci-	2f\	-sci-	2a\	-ſci-	2cc\	-ſci-
=40-	=40-	=40-	=40-	=40-	=40-	=40-	=40-
!LO:TX:t=P:problem=kreska pseudotaktowa	!	!LO:TX:t=P:problem=kreska pseudotaktowa	!	!LO:TX:t=P:problem=kreska pseudotaktowa	!	!LO:TX:t=P:problem=kreska pseudotaktowa	!
1F\	-pe	1f\	-pe	1a\	-pe	1cc\	-pe
1.B-\	de-	2r	.	1.f\	de-	2.dd\	de-
.	.	1d\	de-	.	.	.	.
.	.	.	.	.	.	4cc\	-pre-
=41-	=41-	=41-	=41-	=41-	=41-	=41-	=41-
.	.	.	.	.	.	2b-\	-ca-
2F/	-pre-	2c/	-pre-	2f\	-pre-	2a\	-ti-
2G\	-ca-	2B-/	-ca-	2d/	-ca-	2g/	-o-
!	!	!	!	!	!	!LO:TX:t=P:problem=kreska pseudotaktowa	!
2D/	-ti-	2A/	-ti-	2d/	-ti-	2f/	-nem
=42-	=42-	=42-	=42-	=42-	=42-	=42-	=42-
2E/	-o-	2G/	-o-	1.c/	-o-	2g\	no-
!	!	!LO:TX:t=P:problem=kreska pseudotaktowa	!	!	!	!	!
1F\	-nem	2F/	-nem	.	.	2.a\	.
.	.	2A/	no-	.	.	.	.
.	.	.	.	.	.	4g/	.
!	!	!	!	!LO:TX:t=P:problem=kreska pseudotaktowa	!	!	!
2BB-/	no-	4B-/	.	2d/	-nem	1f/	.
.	.	4A/	.	.	.	.	.
=43-	=43-	=43-	=43-	=43-	=43-	=43-	=43-
!LO:TX:t=P:problem=kreska pseudotaktowa	!	!	!	!	!	!	!
1C/	-stram	4G/	.	1c/	no-	.	.
.	.	4F/	.	.	.	.	.
!	!	!LO:TX:t=P:problem=kreska pseudotaktowa	!	!	!	!	!
.	.	2G/	.	.	.	2e/	.
!LO:LB:g=original	!	!	!	!LO:TX:t=P:problem=kreska pseudotaktowa	!	!LO:TX:t=P:problem=kreska pseudotaktowa	!
2r	.	2F,/	-stram	1A/	-ſtram	1f/	-stram
2F\	Qui	2c\	Qui	.	.	.	.
=44-	=44-	=44-	=44-	=44-	=44-	=44-	=44-
2A\	se-	2f\	se-	0r	.	0r	.
2B-\	-des	2f\	-des	.	.	.	.
2c\	ad	2e\	ad	.	.	.	.
2.d\	dex-	2.f\	dex-	.	.	.	.
=45-	=45-	=45-	=45-	=45-	=45-	=45-	=45-
!	!	!	!	!	!	!LO:TX:t=P:problem=kreska pseudotaktowa	!
.	.	.	.	2r	.	1r	.
4A\	-te-	4f\	-te-	.	.	.	.
!LO:TX:t=P:problem=kreska pseudotaktowa	!	!	!	!	!	!	!
2c\	-ram	2e\	-ra(m)	1a\	mi-	.	.
!	!	!	!	!	!	!LO:TX:t=P:problem=kreska pseudotaktowa	!
1B-\	Pa-	1d\	P(at)-	.	.	2r	.
.	.	.	.	2g\	-ſe-	1dd\	mi-
=46-	=46-	=46-	=46-	=46-	=46-	=46-	=46-
!LO:TX:t=P:problem=kreska pseudotaktowa	!	!LO:TX:t=P:problem=kreska pseudotaktowa	!	!	!	!	!
1A\	-tris	1e\	-ris	2.a\	-re-	.	.
*	*	*	*	*	*	*custos:dd	*
!	!	!	!	!	!	!LO:TX:t=P:problem=kreska pseudotaktowa	!
.	.	.	.	.	.	2cc\	-ſe-
*	*	*	*	*custos:f	*	*	*
!	!	!	!	!LO:TX:t=P:problem=kreska pseudotaktowa	!	!	!
.	.	.	.	4g\	-re	.	.
!	!	!	!	!LO:LB:g=original	!	!LO:LB:g=original	!
1B-\	mi-	0r	.	2f\	no-	2.dd\	-re-
.	.	.	.	1g\	.	.	.
.	.	.	.	.	.	4cc\	.
=47-	=47-	=47-	=47-	=47-	=47-	=47-	=47-
!	!	!LO:TX:t=P:problem=kreska pseudotaktowa	!	!	!	!	!
2G\	-ſe-	.	.	.	.	2b-\	-re
2A\	-re-	.	.	1f\	.	2a\	.
!	!	!LO:LB:g=original	!	!	!	!	!
2B-\	-re	2r	.	.	.	1g\	no-
!	!	!LO:TX:t=P:problem=kreska pseudotaktowa	!	!LO:TX:t=P:problem=kreska pseudotaktowa	!	!	!
2c\	no-	[2c/	Quo-	2e/	bis	.	.
=48-	=48-	=48-	=48-	=48-	=48-	=48-	=48-
!LO:TX:t=P:problem=kreska pseudotaktowa	!	!	!	!	!	!LO:TX:t=P:problem=kreska pseudotaktowa	!
1G\	-bis.	2c/]	.	2.d/	Quo-	1g\	-bis.
.	.	2Bn/	-ni-	.	.	.	.
.	.	.	.	4d/	-ni-	.	.
0r	.	2c,/	-am	2e\	-am	2r	.
.	.	2c/	tu	2e\	Tu	1cc\	Quo-
=49-	=49-	=49-	=49-	=49-	=49-	=49-	=49-
!LO:TX:t=P:problem=kreska pseudotaktowa	!	!	!	!	!	!	!
.	.	2A/	so-	2f\	so-	.	.
!	!	!	!	!LO:TX:t=P:problem=kreska pseudotaktowa	!	!	!
.	.	2G/	-l(us)	2g\	-l(us)	2bn\	-ni-
1r	.	0F/	S(an)-	2.a\	San-	2cc\	-am
.	.	.	.	.	.	2cc\	Tu
.	.	.	.	4g\	.	.	.
=50-	=50-	=50-	=50-	=50-	=50-	=50-	=50-
2r	.	.	.	2f\	.	2a\	so-
2.c\	Tu	.	.	2e/	.	2a\	-l(us)
!	!	!	!	!LO:TX:t=P:problem=kreska pseudotaktowa	!	!LO:TX:t=P:problem=kreska pseudotaktowa	!
.	.	2G,/	-ctus.	1d/	-ctus	1g\	San-
8Bn\L	.	.	.	.	.	.	.
8A\J	.	.	.	.	.	.	.
2B\	.	2d\	Tu	.	.	.	.
=51-	=51-	=51-	=51-	=51-	=51-	=51-	=51-
2c\	so-	2e\	so-	2r	.	2g,/	-ct(us)
!LO:TX:t=P:problem=kreska pseudotaktowa	!	!LO:TX:t=P:problem=kreska pseudotaktowa	!	!	!	!	!
2c\	-lus	2g\	-l(us)	2e/	Tu	2g/	Tu
2A\	Do-	2g\	Do-	2c/	so-	2a\	so-
2A\	-mi-	2f#X\	-mi-	2c/	-l(us)	2cc\	-lus
=52-	=52-	=52-	=52-	=52-	=52-	=52-	=52-
!LO:TX:t=P:problem=kreska pseudotaktowa	!	!LO:TX:t=P:problem=kreska pseudotaktowa	!	!	!	!	!
1G\	-n(us)	1g\,	-n(us)	2d/	Do-	2cc\	Do-
!	!	!	!	!	!	!LO:TX:t=P:problem=kreska pseudotaktowa	!
.	.	.	.	2d/	-mi-	2bn\	-mi-
1c\	Tu	1e\	Tu	2c,/	-n(us)	2cc,\	-n(us)
!	!	!	!	!LO:TX:t=P:problem=kreska pseudotaktowa	!	!	!
.	.	.	.	2g\	Tu	2cc\	Tu
=53-	=53-	=53-	=53-	=53-	=53-	=53-	=53-
!	!	!	!	!	!	!LO:TX:t=P:problem=kreska pseudotaktowa	!
1F\	so-	1f\	so-	1a\	so-	1cc\	so-
2F,\	-lus	2f,\	-lus	2a\	-lus	2cc\	-lus
!LO:TX:t=P:problem=kreska pseudotaktowa	!	!	!	!LO:TX:t=P:problem=kreska pseudotaktowa	!	!	!
2F\	al-	2f\	al-	2a\	al-	2cc\	al-
=54-	=54-	=54-	=54-	=54-	=54-	=54-	=54-
2B-\	-tiſ-	2d\	-tiſ-	2f\	-tiſ-	2dd\	-tiſ-
2B-\	-si-	2d\	-si-	2g\	-si-	2dd\	-si-
2A,\	-m(us)	2e,\	-m(us)	2a\	-m(us)	2cc,\	-m(us)
!	!	!LO:TX:t=P:problem=kreska pseudotaktowa	!	!LO:TX:t=P:problem=kreska pseudotaktowa	!	!LO:TX:t=P:problem=kreska pseudotaktowa	!
2G\	Je-	2g\	Je-	2d/	Je-	2b-\	Je-
=55-	=55-	=55-	=55-	=55-	=55-	=55-	=55-
2A\	-su	2.f\	.	2a\	-su	2cc\	-su
1B-\	X-	.	.	2.f\	Chri-	2.dd\	Chri-
.	.	4e\	.	.	.	.	.
.	.	2d\	.	.	.	.	.
.	.	.	.	8e\L	.	4cc\	.
.	.	.	.	8f\J	.	.	.
2E-X/	.	2e-X\	-su	2g\	.	1b-\	.
=56-	=56-	=56-	=56-	=56-	=56-	=56-	=56-
!LO:TX:t=P:problem=kreska pseudotaktowa	!	!	!	!LO:TX:t=P:problem=kreska pseudotaktowa	!	!	!
1F\,	-te	1c\	X-	0f\	-ste	.	.
.	.	.	.	.	.	2a\	.
!LO:LB:g=original	!	!	!	!	!	!LO:TX:t=P:problem=kreska pseudotaktowa	!
2rA	.	2B-,/	-te	.	.	1b-\	-ste.
2B-\	Cum	2d\	Cum	.	.	.	.
=57-	=57-	=57-	=57-	=57-	=57-	=57-	=57-
2A\	San-	2c\	S(an)-	0r	.	0r	.
!	!	!LO:TX:t=P:problem=kreska pseudotaktowa	!	!	!	!	!
2G\	-cto	2B-,/	-cto	.	.	.	.
2F/	Spi-	2c\	Spi-	.	.	.	.
2E/	-ri-	2c\	-ri-	.	.	.	.
=58-	=58-	=58-	=58-	=58-	=58-	=58-	=58-
!LO:TX:t=P:problem=kreska pseudotaktowa	!	!LO:TX:t=P:problem=kreska pseudotaktowa	!	!	!	!	!
1D/	-tu	1d\	-tu	2r	.	2r	.
.	.	.	.	2f\	Cum	2a\	Cum
*	*	*custos:d	*	*	*	*	*
!	!	!LO:TX:t=P:problem=kreska pseudotaktowa	!	!	!	!	!
0r	.	1re	.	2e/	S(an)-	2g/	S(an)-
.	.	.	.	2d/	-cto	2f/	-cto
!	!	!LO:PB:g=original	!	!	!	!	!
=59-	=59-	=59-	=59-	=59-	=59-	=59-	=59-
.	.	2r	.	2c/	Spi-	2g\	Spi-
!	!	!	!	!LO:TX:t=P:problem=kreska pseudotaktowa	!	!	!
.	.	2d\	in	2B-/	-ri-	2g\	-ri-
!LO:TX:t=P:problem=kreska pseudotaktowa	!	!	!	!LO:TX:t=P:problem=kreska pseudotaktowa	!	!LO:TX:t=P:problem=kreska pseudotaktowa	!
2r	.	2e\	glo-	1A/	-tu	1a\	-tu
!	!	!LO:TX:t=P:problem=kreska pseudotaktowa	!	!	!	!	!
2A\	in	2f\	-ri-	.	.	.	.
!	!	!	!	!LO:LB:g=original	!	!	!
=60-	=60-	=60-	=60-	=60-	=60-	=60-	=60-
!	!	!	!	!	!	!LO:TX:t=P:problem=kreska pseudotaktowa	!
2B-\	glo-	2g\	-a	0r	.	1r	.
2c\	-ri-	1g\	De-	.	.	.	.
!	!	!	!	!	!	!LO:LB:g=original	!
1d\	-a	.	.	.	.	1a\	in
!	!	!LO:TX:t=P:problem=kreska pseudotaktowa	!	!	!	!	!
.	.	2f#X\	-i	.	.	.	.
=61-	=61-	=61-	=61-	=61-	=61-	=61-	=61-
!	!	!	!	!LO:TX:t=P:problem=kreska pseudotaktowa	!	!	!
2G\	De-	2g\	Pa-	1r	.	2b-X\	glo-
!LO:TX:t=P:problem=kreska pseudotaktowa	!	!	!	!	!	!	!
2A\	-i	4fn\	.	.	.	2cc\	-ri-
.	.	4e\	.	.	.	.	.
!	!	!	!	!	!	!LO:TX:t=P:problem=kreska pseudotaktowa	!
2.B-\	Pa-	2d\	.	2r	.	1dd\	-a
.	.	1g\	-tris	2d/	in	.	.
8A\L	.	.	.	.	.	.	.
8B-\J	.	.	.	.	.	.	.
=62-	=62-	=62-	=62-	=62-	=62-	=62-	=62-
2c\	.	.	.	2e\	glo-	2g\	De-
2A\	-tris	2.f\	A-	2f\	-ri-	2a\	-i
1G\	a-	.	.	1g\	-a	1b-\	Pa-
.	.	8e\L	.	.	.	.	.
.	.	8d\J	.	.	.	.	.
!	!	!LO:TX:t=P:problem=kreska pseudotaktowa	!	!	!	!	!
.	.	2e\	.	.	.	.	.
=63-	=63-	=63-	=63-	=63-	=63-	=63-	=63-
!LO:TX:t=P:problem=kreska pseudotaktowa	!	!	!	!	!	!LO:TX:t=P:problem=kreska pseudotaktowa	!
1F\	-men	2f,\	-men	2c/	De-	1a\	-tris
.	.	2A/	in	2.f\	-i	.	.
1r	.	2B-/	glo-	.	.	1g\	A-
.	.	.	.	8e/L	.	.	.
.	.	.	.	8d/J	.	.	.
.	.	2c/	-ri-	2e\	Pa-	.	.
=64-	=64-	=64-	=64-	=64-	=64-	=64-	=64-
!	!	!LO:TX:t=P:problem=kreska pseudotaktowa	!	!LO:TX:t=P:problem=kreska pseudotaktowa	!	!	!
1D/	in	1d\	-a	1f\	-tris	4f/	.
.	.	.	.	.	.	4g/	.
.	.	.	.	.	.	4a/	.
!	!	!	!	!	!	!LO:TX:t=P:problem=kreska pseudotaktowa	!
.	.	.	.	.	.	4b-/	.
2E/	glo-	2G/	De-	2g\	A-	2cc\	.
2F/	-ri-	2A/	-i	4f\	.	2.dd\	.
.	.	.	.	4e\	.	.	.
=65-	=65-	=65-	=65-	=65-	=65-	=65-	=65-
!LO:TX:t=P:problem=kreska pseudotaktowa	!	!	!	!	!	!	!
1G\	-a	0B-/	Pa-	2.d/	.	.	.
.	.	.	.	.	.	4cc\	.
!	!	!	!	!	!	!LO:TX:t=P::problem=kreska pseudotaktowa&colon;między nutą a kropką	!
.	.	.	.	.	.	[<2b-\	.
.	.	.	.	4e/	.	.	.
!	!	!	!	!	!	!LO:N:xstem:cue	!
2D/	De-	.	.	2f\	.	4b-\]	.
.	.	.	.	.	.	4a\	.
2E/	-i	.	.	4e/	.	2.g/	.
.	.	.	.	4d/	.	.	.
=66-	=66-	=66-	=66-	=66-	=66-	=66-	=66-
!	!	!LO:TX:t=P:problem=kreska pseudotaktowa	!	!	!	!	!
2F\	Pa-	1A/	-tris	1c/	.	.	.
.	.	.	.	.	.	4f/	.
2F\	-tris	.	.	.	.	2.f/	.
1C/	A-	1G/	A-	1c/	.	.	.
.	.	.	.	.	.	8e/L	.
.	.	.	.	.	.	8d/J	.
.	.	.	.	.	.	2e/	.
=67-	=67-	=67-	=67-	=67-	=67-	=67-	=67-
0F\;	-men.	0A/;	-men.	0c/;	-men	0f/;	-men.
==	==	==	==	==	==	==	==
*-	*-	*-	*-	*-	*-	*-	*-
!!!system-decoration: [(s1,s2,s3,s4)]
!!!EED: Leszek Kubiak
!!!EEV: 2021-03-16
!!!ENC: Andrzej Kubiczek
!!!END: 2021-02-28
!!!YEC: Copyright 2022 Narodowy Instytut Fryderyka Chopina (https://polishscores.org)
!!!YEM: Licence CC BY 4.0 (https://creativecommons.org/licenses/by/4.0)
